imgs/platform-6.svg

<svg width="24" height="21" viewBox="0 0 24 21" fill="none" xmlns="http://www.w3.org/2000/svg">
<path d="M22.5 6.75H16.5C16.1022 6.75 15.7206 6.90804 15.4393 7.18934C15.158 7.47064 15 7.85218 15 8.25V19.5C15 19.8978 15.158 20.2794 15.4393 20.5607C15.7206 20.842 16.1022 21 16.5 21H22.5C22.8978 21 23.2794 20.842 23.5607 20.5607C23.842 20.2794 24 19.8978 24 19.5V8.25C24 7.85218 23.842 7.47064 23.5607 7.18934C23.2794 6.90804 22.8978 6.75 22.5 6.75ZM22.5 8.25V16.5H16.5V8.25H22.5ZM16.5 19.5V17.7H22.5V19.5H16.5Z" fill="#006AFF"/>
<path d="M13.5 13.5H1.5V1.5H19.5V5.25H21V1.5C21 1.10218 20.842 0.720644 20.5607 0.43934C20.2794 0.158035 19.8978 0 19.5 0H1.5C1.10218 0 0.720644 0.158035 0.43934 0.43934C0.158035 0.720644 0 1.10218 0 1.5V13.5C0 13.8978 0.158035 14.2794 0.43934 14.5607C0.720644 14.842 1.10218 15 1.5 15H13.5V13.5Z" fill="#006AFF"/>
<path d="M13.5 16.5H5.25C5.05109 16.5 4.86032 16.579 4.71967 16.7197C4.57902 16.8603 4.5 17.0511 4.5 17.25C4.5 17.4489 4.57902 17.6397 4.71967 17.7803C4.86032 17.921 5.05109 18 5.25 18H13.5V16.5Z" fill="#006AFF"/>
</svg>

<svg width="24" height="21" fill="none" xmlns="http://www.w3.org/2000/svg"><path d="M22.5 6.75h-6a1.5 1.5 0 0 0-1.5 1.5V19.5a1.5 1.5 0 0 0 1.5 1.5h6a1.5 1.5 0 0 0 1.5-1.5V8.25a1.5 1.5 0 0 0-1.5-1.5Zm0 1.5v8.25h-6V8.25h6Zm-6 11.25v-1.8h6v1.8h-6Z" fill="#006AFF"/><path d="M13.5 13.5h-12v-12h18v3.75H21V1.5A1.5 1.5 0 0 0 19.5 0h-18A1.5 1.5 0 0 0 0 1.5v12A1.5 1.5 0 0 0 1.5 15h12v-1.5ZM13.5 16.5H5.25a.75.75 0 1 0 0 1.5h8.25v-1.5Z" fill="#006AFF"/></svg>
